X:1
T:Misssa La sol mi sol la - Kyrie
T:Misssa La sol mi sol la - Kyrie
T:André Vierendeels (30/03/2012)
C:André Vierendeels
C:(30/03/2012)
%%score [ 1 2 3 4 ]
L:1/8
Q:1/4=120
M:2/2
K:C
V:1 treble nm="Soprano" snm="S"
V:2 treble nm="Alto" snm="A"
V:3 treble-8 nm="Tenor" snm="T"
V:4 bass nm="Bass" snm="B"
V:1
 A6 G2 | E8 | G8 | A6 G2 | A8 | c8 | B8 | F8 | G4 c4 | d4 c2 d2 | A8 | A6 G2 | E8 | G8- | G8 | A8 | %16
w: Ky- ri-|e,|e-|lei- *|son.|Chri-|ste,|e-|lei _|_ _ _|son.|Ky- ri-|e,|e-||lei-|
 G8 | A6 G2 | A6 G2 | F4 G4 | A8 | A8 | A6 G2 | A8 |] %24
w: son.|Ky- ri-|e, e-|lei- *|son,|e-|lei- *|son.|
V:2
 z8 | C6 C2 | E4 D2 E2 | F6 E2 | E8 | A4 G2 A2 | G8 | C4 D2 EF | D4 F2 G2 | A4 F4 | E8 | z8 | C8 | %13
w: |Ky- ri-|e, e _|lei- *|son.|Chri- * *|ste,|e- * * *|lei- * *||son.||Ky-|
 D8 | E4 E4 | F8 | D8 | F6 E2 | F6 G2 | A4 E4 | E8 | F8 | E8 | E8 |] %24
w: ri-|e, e-|lei-|son.|Ky- ri-|e, e-|lei- *|son,|e-|lei-|son.|
V:3
 z8 | A6 A2 | B6 B2 | c4 d2 B2 | c8 | e4 c4 | d4 e4 | A6 dc | B4 A4- | A8 | c8 | z8 | A8 | B8 | %14
w: |Ky- ri-|e, e-|lei- * *|son.|Chri- *|ste, e-|lei- * *|||son.||Ky-|ri-|
 c4 c4 | c8 | B8 | c4 c4 | d6 e2 | d3 c B4 | c8 | d8 | d4 c2 B2 | c8 |] %24
w: e, e-|lei-|son.|Ky- ri-|e, e-|lei- * *|son,|e-|lei- * *|son.|
V:4
 z8 | A,,6 A,,2 | E,4 G,4 | F,4 D,2 E,2 | A,8 | A,4 E,2 F,2 | G,4 E,4 | F,4 D,4 | G,4 F,4 | D,8 | %10
w: |Ky- ri-|e, e-|lei- * *|son|Chri,- * *|ste e-|lei- *|||
 A,,8 | z8 | z8 | G,4 G,4 | C,4 C,4 | F,8 | G,8 | F,4 F,4 | D,6 C,2 | D,4 E,4 | A,,8 | D,8 | %22
w: son.|||Ky- ri-|e, e-|lei-|son.|Ky- ri-|e, e-|lei- *|son,|e-|
 A,6 B,2 | A,8 |] %24
w: lei- *|son.|

